resources/svg/qr-code.svg

<svg xmlns="http://www.w3.org/2000/svg" viewBox="0 0 15 15" fill="currentColor"><path fill-rule="evenodd" clip-rule="evenodd" d="M0 1.5C0 0.671573 0.671573 0 1.5 0H5.5C6.32843 0 7 0.671573 7 1.5V5.5C7 6.32843 6.32843 7 5.5 7H1.5C0.671573 7 0 6.32843 0 5.5V1.5ZM1.5 1C1.22386 1 1 1.22386 1 1.5V5.5C1 5.77614 1.22386 6 1.5 6H5.5C5.77614 6 6 5.77614 6 5.5V1.5C6 1.22386 5.77614 1 5.5 1H1.5ZM8 1.5C8 0.671573 8.67157 0 9.5 0H13.5C14.3284 0 15 0.671573 15 1.5V5.5C15 6.32843 14.3284 7 13.5 7H9.5C8.67157 7 8 6.32843 8 5.5V1.5ZM9.5 1C9.22386 1 9 1.22386 9 1.5V5.5C9 5.77614 9.22386 6 9.5 6H13.5C13.7761 6 14 5.77614 14 5.5V1.5C14 1.22386 13.7761 1 13.5 1H9.5ZM4 4H3V3H4V4ZM12 4H11V3H12V4ZM0 9.5C0 8.67157 0.671573 8 1.5 8H5.5C6.32843 8 7 8.67157 7 9.5V13.5C7 14.3284 6.32843 15 5.5 15H1.5C0.671573 15 0 14.3284 0 13.5V9.5ZM1.5 9C1.22386 9 1 9.22386 1 9.5V13.5C1 13.7761 1.22386 14 1.5 14H5.5C5.77614 14 6 13.7761 6 13.5V9.5C6 9.22386 5.77614 9 5.5 9H1.5ZM8 8H12V9H9V12H8V8ZM15 9H14V8H15V9ZM4 12H3V11H4V12ZM14 12H11V11H15V15H14V12ZM8 14H12V15H8V14Z" fill="black"/></svg>

<svg xmlns="http://www.w3.org/2000/svg" viewBox="0 0 15 15" fill="currentColor"><path fill-rule="evenodd" clip-rule="evenodd" d="M0 1.5A1.5 1.5 0 011.5 0h4A1.5 1.5 0 017 1.5v4A1.5 1.5 0 015.5 7h-4A1.5 1.5 0 010 5.5v-4zM1.5 1a.5.5 0 00-.5.5v4a.5.5 0 00.5.5h4a.5.5 0 00.5-.5v-4a.5.5 0 00-.5-.5h-4zm6.5.5A1.5 1.5 0 019.5 0h4A1.5 1.5 0 0115 1.5v4A1.5 1.5 0 0113.5 7h-4A1.5 1.5 0 018 5.5v-4zM9.5 1a.5.5 0 00-.5.5v4a.5.5 0 00.5.5h4a.5.5 0 00.5-.5v-4a.5.5 0 00-.5-.5h-4zM4 4H3V3h1v1zm8 0h-1V3h1v1zM0 9.5A1.5 1.5 0 011.5 8h4A1.5 1.5 0 017 9.5v4A1.5 1.5 0 015.5 15h-4A1.5 1.5 0 010 13.5v-4zM1.5 9a.5.5 0 00-.5.5v4a.5.5 0 00.5.5h4a.5.5 0 00.5-.5v-4a.5.5 0 00-.5-.5h-4zM8 8h4v1H9v3H8V8zm7 1h-1V8h1v1zM4 12H3v-1h1v1zm10 0h-3v-1h4v4h-1v-3zm-6 2h4v1H8v-1z" fill="currentColor"/></svg>
